/* XPM */
static char *_23c883a57f641ba9e70d653a9c362e9kIiyLfXvTJSido1c[] = {
/* columns rows colors chars-per-pixel */
"32 32 214 2 ",
"   c None",
".  c #8ED17E",
"X  c #95DC7A",
"o  c #9EEE6E",
"O  c #9FEE6E",
"+  c #9DE679",
"@  c #A0EE70",
"#  c #A0EF70",
"$  c #A1EF71",
"%  c #A2EF73",
"&  c #A2E97F",
"*  c #A2F073",
"=  c #A3F073",
"-  c #A3F074",
";  c #A4F075",
":  c #A4F175",
">  c #A4F176",
",  c #A5F176",
"<  c #A6F178",
"1  c #A6F278",
"2  c #A7F278",
"3  c #A7F279",
"4  c #A8F27A",
"5  c #A8F37A",
"6  c #A8F37B",
"7  c #A9F37B",
"8  c #A9F37D",
"9  c #AAF37D",
"0  c #AAF47D",
"q  c #ABF47D",
"w  c #ACF57F",
"e  c #5D73BC",
"r  c #5E75BD",
"t  c #627CB7",
"y  c #637FB6",
"u  c #637CB9",
"i  c #6178BF",
"p  c #4954C9",
"a  c #4954CA",
"s  c #4A55CA",
"d  c #4A55CB",
"f  c #4B55CB",
"g  c #4B56CB",
"h  c #4C57CB",
"j  c #4C56CC",
"k  c #4C57CC",
"l  c #4D57CC",
"z  c #4D58CC",
"x  c #4D58CD",
"c  c #4D59CD",
"v  c #4E59CD",
"b  c #4E5ACE",
"n  c #4F5ACE",
"m  c #4F5ACF",
"M  c #4F5BCF",
"N  c #505ACF",
"B  c #505BCF",
"V  c #515BCF",
"C  c #505CCF",
"Z  c #515CCF",
"A  c #515BD0",
"S  c #515CD0",
"D  c #515DD0",
"F  c #515CD1",
"G  c #515DD1",
"H  c #525CD0",
"J  c #525DD0",
"K  c #525CD1",
"L  c #525DD1",
"P  c #535DD1",
"I  c #525ED1",
"U  c #535ED1",
"Y  c #535FD1",
"T  c #535ED2",
"R  c #535FD2",
"E  c #545ED2",
"W  c #545FD2",
"Q  c #555FD2",
"!  c #545FD3",
"~  c #555FD3",
"^  c #555FD4",
"/  c #5260C7",
"(  c #596CC3",
")  c #5A6DC3",
"_  c #5A6EC3",
"`  c #596CC4",
"'  c #5B6EC5",
"]  c #5C6DC7",
"[  c #5564CA",
"{  c #5665CB",
"}  c #5765CB",
"|  c #5E70C8",
" . c #5560D2",
".. c #5460D3",
"X. c #5560D3",
"o. c #5561D3",
"O. c #5660D3",
"+. c #5661D3",
"@. c #5761D3",
"#. c #5662D3",
"$. c #5560D4",
"%. c #5561D4",
"&. c #5561D5",
"*. c #5660D4",
"=. c #5661D4",
"-. c #5761D4",
";. c #5661D5",
":. c #5761D5",
">. c #5662D4",
",. c #5762D4",
"<. c #5763D4",
"1. c #5662D5",
"2. c #5762D5",
"3. c #5663D5",
"4. c #5661D6",
"5. c #5761D6",
"6. c #5762D6",
"7. c #5764D5",
"8. c #5962D4",
"9. c #5863D4",
"0. c #5862D5",
"q. c #5863D5",
"w. c #5862D6",
"e. c #5963D6",
"r. c #6378C3",
"t. c #6579C5",
"y. c #657AC4",
"u. c #7BAD97",
"i. c #7EAC9C",
"p. c #6D92AA",
"a. c #769BAC",
"s. c #6987B5",
"d. c #6680BB",
"f. c #6682BA",
"g. c #6982BE",
"h. c #728DBE",
"j. c #7997BA",
"k. c #7A98BB",
"l. c #77A2A1",
"z. c #78A5A0",
"x. c #7CA7A6",
"c. c #7DA7A7",
"v. c #7EA6AA",
"b. c #6B82C1",
"n. c #6B83C1",
"m. c #6B84C1",
"M. c #6C84C1",
"N. c #6C85C2",
"B. c #758FC0",
"V. c #87B2A7",
"C. c #8DBCA3",
"Z. c #8EBBA4",
"A. c #8FBCA5",
"S. c #89B4A9",
"D. c #94BFAB",
"F. c #86ACB2",
"G. c #8EB6B0",
"H. c #8AC985",
"J. c #8AC986",
"K. c #87C18E",
"L. c #91CD8E",
"P. c #93D485",
"I. c #99D78E",
"U. c #8BC195",
"Y. c #8FC499",
"T. c #93CD92",
"R. c #99CF9A",
"E. c #9CD19D",
"W. c #A2DB99",
"Q. c #9EE187",
"!. c #ADEF8E",
"~. c #ACF580",
"^. c #ADF580",
"/. c #ADF582",
"(. c #AEF582",
"). c #AEF682",
"_. c #AFF685",
"`. c #B0F685",
"'. c #B0F785",
"]. c #B1F787",
"[. c #B2F787",
"{. c #B3F888",
"}. c #B3F889",
"|. c #B3F88A",
" X c #B4F98A",
".X c #B5F98C",
"XX c #B6F98C",
"oX c #B6F98D",
"OX c #B7FA8F",
"+X c #B8FA8F",
"@X c #B8FB8F",
"#X c #AFEF90",
"$X c #B1F093",
"%X c #B9FB91",
"&X c #BAFB91",
"*X c #BAFB92",
"=X c #BAFC92",
"-X c #BBFC93",
";X c #BBFC94",
":X c #BCFC94",
">X c #BCFD94",
",X c #BCFC95",
"<X c #BCFD95",
"1X c #BDFD96",
"2X c #BDFD97",
"3X c #BEFD97",
"4X c #BDFE97",
"5X c #BEFE97",
"6X c #B7F39A",
"7X c #B8F49D",
"8X c #BFFE99",
"9X c #94C6A0",
"0X c #A3D5A6",
"qX c #AAE0A3",
/* pixels */
"                        0.;.0.;.;.;.;.0.                        ",
"                  ;.;.;.;.;.;.;.;.;.;.;.;.;.;.                  ",
"              O.;.;.;.;.;.;.;.;.;.;.;.;.;.;.;.;.O.              ",
"            ;.;.;.O.O.;.O.;.O.O.O.O.O.O.O.O.O.O.;.;.            ",
"          ;.;.;.O.O.O.W W W U U U W U W U W W W O.O.;.          ",
"        0.;.;.O.W W W U U U U U U U U U U U U U W W O.;.        ",
"      ;.;.O.O.W U U U U U U B B B B B B B B U U U U O.O.;.      ",
"    O.;.;.O.W U U U B v v v ] r.h.j.k.k.h.b.y.C U U W O.;.;.    ",
"    ;.;.O.W U U U { b.G.0X7X8X8X8X8X8X8X8X8X8X8XqXB.U W ;.;.    ",
"  ;.;.;.W W U m.D.6X5X5X5X5X5X5X5X5X5X5X5X5X5X5X5XN.U W O.;.;.  ",
"  ;.;.O.W U F.5X;X;X;X;X-X;X5X;X;X5X;X5X5X;X;X;X5XN.U W O.;.;.  ",
"  ;.;.O.W U m.%X%X%X%X%X-X%X%X%X%X%X%X%X%X-X%X%X%Xy.U W O.;.;.  ",
";.;.;.O.W U U $X+XOXOXOXOX+XOXOXOX+XOXOXOXOXOXOXOX| U W O.;.;.;.",
";.;.;.;.O.U U S.OXOXOXOXOXOXOXOXOX#XC.Z.A.9XE.W.OXU W O.O.;.;.;.",
";.;.;.;.O.U U g. X X!.R.|.|.|.|.|.v.f f j v v B U U W O.;.;.;.;.",
";.;.;.;.O.W U { V.d.f u [.[.[.[.|.s.f h v v B U U U O.O.;.;.;.;.",
";.;.;.;.;.O.U U v v j a.[._.[.[._.e f j v v U U U W O.;.;.;.;.;.",
";.;.;.;.;.O.W U B v j Y./././././.f f j v B U U W O.O.;.;.;.;.;.",
"7.;.;.;.;.O.W U C v v I.w /././.T.f f / x.{ U U W O.O.;.;.;.;.0.",
"0.0.;.;.;.O.W U U v v 0 0 0 9 9 U.f t Q.9 x.C U W O.O.;.;.;.;.0.",
"  ;.;.;.;.O.W W U B ` 5 5 5 5 5 l.i.5 5 5 & ` U U O.;.;.;.;.;.  ",
"  ;.;.;.;.;.;.W U U _ < < < < < < < < < < < L.U U O.O.;.;.;.;.  ",
"  ;.;.0.;.;.;.W U U _ , , , , , , , , , , , , d.U O.;.;.;.;.0.  ",
"    ;.0.;.;.;.W U U B + = - = # = # = - = = P.i U O.;.;.;.;.    ",
"    O.;.;.;.;.O.W U U K.# # # # # # # # # z.U U W O.;.;.;.;.    ",
"      ;.;.;.;.;.W U U _ X O O O O O O H.r C U U W O.;.;.;.      ",
"        ;.;.;.;.O.W U U _ p.H.. . u.t B A U U W O.;.;.;.        ",
"          0.;.;.O.O.W U U U U B B A U U U U W W ;.;.;.          ",
"            ;.;.;.;.W W W U U U U U U U W W O.;.;.;.            ",
"              O.;.;.;.O.O.W W W W W W W O.;.;.;.^               ",
"                  ;.;.;.O.O.O.O.O.O.;.;.;.;.;.                  ",
"                        ;.;.;.;.;.;.O.;.                        "
};
